X:34
T:Strike The Bell
N:by ear, APBW
Q:1/4=180
I:abc2nwc
M:6/8
L:1/8
K:G
B3B2A|G3B2d|g3g2f|e6|d3d2e|d3B2G|A3A2B|A6||
B3B2A|G3B2d|g3g2f|e3f2g|a2g f2e|d2c B2A|G3g3|g6|]
[|a3a2g|f2g a3|g3b3|g6|e3e2f|g2f g2e|d2e d2B|A6||
B3B2A|G3B2d|g3g2f|e3f2g|a2g f2e|d2c B2A|G3g3|g6|]


